X:1042
T:The Cook in the Kitchen
R:double jig
N:"collected by Early"
B:O'Neill's 1042
Z:Transcribed by henrik.norbeck@mailbox.swipnet.se
M:6/8
L:1/8
K:G
D|GDG GAG|FDE F2 A|GDG GFG|Add cAG|
GDG GAG|FDE F2 d|cAG FGA|BAGG G2:|
A|BcB BAG|ABA AGF|GAG GFG|Add cAG|
BcB BAG|ABA A2 d|cAG FGA|BAGG G2:|
B|d2 e f2 g|Ta2 g f2 d|cAG FGA|Add cAG|
d2 e f2 g|Ta2 g f2 d|cAG FGA|BAGG G2:|
